X:88
T: Der heimkehrende Soldat
N: Q3103E
O: Suedeuropa, Italien
N: Melodievergleich zu Q0103A, anderes Lied.
R: Tanz, Tedesca
M: 2/4
L: 1/32
K: G
D4 | G6G2G6B2 | B6A2A6d2 | B8z4
D4 | G6G2G6B2 | B6A2A6d2 | B8z4
B4 | B6d2d6d2 | d6c2c8
B6B2B6cd | A6A2A6
d2 | B6B2A6GA | G8z4

